Front-end-Projects/github_page/Images/darkMode.svg

<svg width="25" height="24" viewBox="0 0 25 24" fill="none" xmlns="http://www.w3.org/2000/svg">
<mask id="mask0_20_182" style="mask-type:alpha" maskUnits="userSpaceOnUse" x="0" y="0" width="25" height="24">
<path d="M9.99904 0.241785C10.4114 0.156282 10.8237 0.0954798 11.2303 0.0555783C11.6483 0.0156767 12.0625 -0.00332402 12.471 0.000476124C12.7009 0.0023762 12.8853 0.190483 12.8834 0.420392C12.8815 0.597099 12.7693 0.747205 12.6135 0.806107C10.875 1.49013 9.48412 2.76508 8.63099 4.34404C7.79116 5.8964 7.47194 7.74138 7.85386 9.60345L7.85576 9.61675C8.29088 11.7182 9.53352 13.4454 11.1961 14.5398C12.8568 15.6343 14.9335 16.0941 17.035 15.6647L17.0483 15.6628C18.5608 15.3493 19.8775 14.6196 20.9055 13.6145C21.9695 12.5752 22.7219 11.2432 23.0582 9.78395C23.1095 9.55975 23.3338 9.42104 23.5561 9.47234C23.7252 9.51224 23.8468 9.64905 23.8734 9.81056C24.375 12.8887 23.6169 15.9041 21.9619 18.3058C20.3145 20.6961 17.776 22.4802 14.7074 23.1111C11.5495 23.7609 8.42768 23.0693 5.93288 21.4276C3.43619 19.7802 1.56842 17.1866 0.91859 14.0287C0.283966 10.9449 0.928091 7.89528 2.48805 5.43089C4.05561 2.95889 6.54471 1.07212 9.59053 0.332989C9.64943 0.317788 9.71783 0.302588 9.79193 0.285487H9.79383L9.99904 0.241785Z" fill="black"/>
</mask>
<g mask="url(#mask0_20_182)">
<path d="M-12.7295 -7.55103L-81.0687 -3.18399C-92.3812 -2.46109 -101.187 6.92497 -101.187 18.2606V77.4061C-101.187 89.2738 -91.566 98.8944 -79.6983 98.8944H172.042C183.91 98.8944 193.531 89.2738 193.531 77.4061V15.4472C193.531 6.11623 187.509 -2.14837 178.627 -5.00747L173.936 -6.51744C171.808 -7.2023 169.588 -7.55103 167.353 -7.55103H144.146C141.127 -7.55103 99.2882 -1.89841 94.4252 -1.89841C91.5335 -1.89841 79.168 0.0752716 68.8894 1.82218C62.8833 2.84294 56.77 1.24578 51.768 -2.23195C49.6823 -3.68207 47.8151 -4.87095 46.8847 -5.20188C44.7383 -5.96536 6.24753 -7.08609 -12.7295 -7.55103Z" fill="url(#paint0_linear_20_182)"/>
<path d="M-7.9892 0.46813L-41.6306 6.69802C-51.816 8.58421 -59.2061 17.4685 -59.2061 27.8271V53.5698C-59.2061 65.4374 -49.5855 75.0581 -37.7178 75.0581H185.846C197.714 75.0581 207.334 65.4374 207.334 53.5697V28.0257C207.334 20.0091 200.836 13.5104 192.819 13.5104C183.356 14.2694 164.116 15.8442 162.864 16.0719C161.611 16.2996 128.615 22.618 112.274 25.7488L92.3833 29.7075C86.3862 30.9011 80.1556 29.4967 75.3199 25.7542C68.7492 20.6689 61.6018 14.9418 60.6873 13.5104C59.6668 11.9131 52.9885 7.99269 47.6553 5.07203C45.0027 3.6194 42.05 2.8157 39.0311 2.63605L-2.79997 0.146834C-4.53634 0.0435081 -6.27884 0.151397 -7.9892 0.46813Z" fill="url(#paint1_linear_20_182)"/>
<path d="M-2.40311 19.7686L-30.1827 29.2877C-32.3197 30.02 -34.6328 30.0627 -36.7954 29.4097C-43.9513 27.2492 -51.0815 32.8472 -50.681 40.3113L-50.2049 49.1831C-49.7012 58.5693 -41.6838 65.7701 -32.2975 65.2664L167.048 54.5688C177.491 54.0084 185.503 45.0878 184.943 34.6443C184.515 26.6771 178.94 20.8948 170.962 20.77C160.861 20.612 148.56 20.6456 147.356 20.7102L119.751 22.1916C115.913 22.3976 112.203 23.6292 109.002 25.7585L96.2915 34.2153C95.3666 34.8307 94.3954 35.3734 93.3866 35.8386L77.3614 43.228C67.431 47.8071 55.61 44.2157 50.119 34.7589C46.9158 29.2421 44.2773 24.5121 43.9659 23.4083C43.6379 22.2454 41.1478 19.9128 38.2295 17.5135C33.3811 13.5276 26.8561 12.4076 20.7693 13.9389L-2.40311 19.7686Z" fill="url(#paint2_linear_20_182)"/>
<path d="M-14.0179 15.6683L-41.9998 20.0131C-49.2814 21.1437 -54.6523 27.4129 -54.6523 34.7818C-54.6523 43.0361 -47.9609 49.7275 -39.7067 49.7275H178.976C184.853 49.7275 189.617 44.9632 189.617 39.0862C189.617 32.1878 183.153 27.115 176.446 28.7285C171.643 29.884 167.492 30.8684 166.706 31.0141C164.785 31.3699 127.714 25.5353 126.077 25.5353C124.768 25.5353 112.439 21.8828 106.439 20.0565L75.4773 15.1362C71.6764 14.5322 67.7952 14.6576 64.0412 15.5056L43.8951 20.0565L28.9841 23.309C22.3708 24.7516 15.465 23.9391 9.36719 21.001L3.78982 18.3138C-1.74119 15.6488 -7.95107 14.7263 -14.0179 15.6683Z" fill="#232323"/>
</g>
<defs>
<linearGradient id="paint0_linear_20_182" x1="46.172" y1="-7.55103" x2="46.172" y2="98.8944" gradientUnits="userSpaceOnUse">
<stop stop-color="#3D3D3D"/>
<stop offset="0.25" stop-color="#383838" stop-opacity="0"/>
</linearGradient>
<linearGradient id="paint1_linear_20_182" x1="74.0641" y1="-0.00872803" x2="74.0641" y2="75.0581" gradientUnits="userSpaceOnUse">
<stop stop-color="#3D3D3D"/>
<stop offset="0.1875" stop-color="#2F2F2F" stop-opacity="0"/>
</linearGradient>
<linearGradient id="paint2_linear_20_182" x1="65.6366" y1="9.63306" x2="68.3323" y2="59.8662" gradientUnits="userSpaceOnUse">
<stop stop-color="#3D3D3D"/>
<stop offset="0.192708" stop-color="#383838" stop-opacity="0"/>
</linearGradient>
</defs>
</svg>

<svg xmlns="http://www.w3.org/2000/svg" width="25" height="24" fill="none"><mask id="a" width="25" height="24" x="0" y="0" maskUnits="userSpaceOnUse" style="mask-type:alpha"><path fill="#000" d="M9.999.242A11.695 11.695 0 0 1 12.471 0a.416.416 0 0 1 .143.806A7.76 7.76 0 0 0 8.63 4.344a7.747 7.747 0 0 0-.777 5.26l.002.013a7.756 7.756 0 0 0 3.34 4.923 7.755 7.755 0 0 0 5.839 1.125l.013-.002a7.741 7.741 0 0 0 3.858-2.049 7.818 7.818 0 0 0 2.152-3.83.415.415 0 0 1 .815.027 11.64 11.64 0 0 1-1.911 8.495 11.628 11.628 0 0 1-7.255 4.805c-3.158.65-6.28-.042-8.774-1.683a11.648 11.648 0 0 1-5.014-7.4 11.638 11.638 0 0 1 1.569-8.597A11.648 11.648 0 0 1 9.591.333c.058-.015.127-.03.2-.048h.003l.205-.043Z"/></mask><g mask="url(#a)"><path fill="url(#b)" d="m-12.73-7.551-68.339 4.367c-11.312.723-20.118 10.109-20.118 21.445v59.145c0 11.868 9.621 21.488 21.489 21.488h251.74c11.868 0 21.489-9.62 21.489-21.488V15.447a21.488 21.488 0 0 0-14.904-20.454l-4.691-1.51a21.483 21.483 0 0 0-6.583-1.034h-23.207c-3.019 0-44.858 5.653-49.72 5.653-2.892 0-15.258 1.973-25.537 3.72-6.006 1.02-12.119-.576-17.121-4.054-2.086-1.45-3.953-2.639-4.883-2.97C44.738-5.965 6.248-7.086-12.73-7.55Z"/><path fill="url(#c)" d="m-7.99.468-33.64 6.23c-10.186 1.886-17.576 10.77-17.576 21.13V53.57c0 11.867 9.62 21.488 21.488 21.488h223.564c11.868 0 21.488-9.62 21.488-21.488V28.026c0-8.017-6.498-14.516-14.515-14.516-9.463.76-28.703 2.334-29.955 2.562-1.253.228-34.249 6.546-50.59 9.677l-19.89 3.959c-5.998 1.193-12.228-.211-17.064-3.954-6.57-5.085-13.718-10.812-14.633-12.244-1.02-1.597-7.698-5.517-13.032-8.438-2.652-1.453-5.605-2.256-8.624-2.436L-2.8.146a21.488 21.488 0 0 0-5.19.322Z"/><path fill="url(#d)" d="m-2.403 19.769-27.78 9.519c-2.137.732-4.45.775-6.612.122-7.156-2.16-14.286 3.437-13.886 10.901l.476 8.872c.504 9.386 8.521 16.587 17.907 16.083L167.048 54.57c10.443-.56 18.455-9.481 17.895-19.925-.428-7.967-6.003-13.75-13.981-13.874-10.101-.158-22.402-.124-23.606-.06l-27.605 1.482a21.482 21.482 0 0 0-10.749 3.567l-12.71 8.456a21.487 21.487 0 0 1-2.905 1.624L77.36 43.228c-9.93 4.58-21.751.988-27.242-8.47-3.203-5.516-5.842-10.246-6.153-11.35-.328-1.163-2.818-3.495-5.736-5.895-4.849-3.985-11.374-5.105-17.46-3.574l-23.173 5.83Z"/><path fill="#232323" d="M-14.018 15.668-42 20.013a14.946 14.946 0 0 0-12.652 14.769c0 8.254 6.691 14.946 14.945 14.946h218.683c5.877 0 10.641-4.765 10.641-10.642 0-6.898-6.464-11.971-13.171-10.357-4.803 1.155-8.954 2.14-9.74 2.285-1.921.356-38.992-5.479-40.629-5.479-1.309 0-13.638-3.652-19.638-5.479l-30.962-4.92a30.312 30.312 0 0 0-11.436.37l-20.146 4.55-14.91 3.253a30.31 30.31 0 0 1-19.618-2.308L3.79 18.314a30.31 30.31 0 0 0-17.808-2.646Z"/></g><defs><linearGradient id="b" x1="46.172" x2="46.172" y1="-7.551" y2="98.894" gradientUnits="userSpaceOnUse"><stop stop-color="#3D3D3D"/><stop offset=".25" stop-color="#383838" stop-opacity="0"/></linearGradient><linearGradient id="c" x1="74.064" x2="74.064" y1="-.009" y2="75.058" gradientUnits="userSpaceOnUse"><stop stop-color="#3D3D3D"/><stop offset=".188" stop-color="#2F2F2F" stop-opacity="0"/></linearGradient><linearGradient id="d" x1="65.637" x2="68.332" y1="9.633" y2="59.866" gradientUnits="userSpaceOnUse"><stop stop-color="#3D3D3D"/><stop offset=".193" stop-color="#383838" stop-opacity="0"/></linearGradient></defs></svg>
